dist/svgs/wechat.svg

<svg xmlns="http://www.w3.org/2000/svg" viewBox="0 0 512 512"><path d="M512 312q0 32-18 59t-45 48l13 46-49-28q-14 4-27.5 7t-27.5 3q-44 0-79-18.5T224 380q-20-31-20-68 0-28 12-53t33-43.5 49-29 60-10.5q2 0 4 .5t4 .5q30 2 56.5 13t46.5 29 31.5 42 11.5 51zm-203-23q8 0 13-5.5t5-13.5-5-13-13-5-13 5-5 13 5 13.5 13 5.5zm99 0q19 0 19-19 0-8-5.5-13t-13.5-5-13 5-5 13 5 13.5 13 5.5zM298 174q-35 11-60 35t-37 56q-8 24-8 49 0 19 5 39-4 1-8 1h-9q-17 0-31.5-3t-32.5-6l-63 32 18-56q-34-24-53-56T0 195q0-33 14-62t39-50 57.5-33.5T181 37q33 0 63.5 10t55 27.5T341 116t23 52q-5-1-9-1.5t-9-.5q-24 0-48 8zm-52-59q-10 0-17 7t-7 17 7 16.5 17 6.5 16.5-6.5T269 139t-6.5-17-16.5-7zm-129 46q11 0 17.5-6.5T141 138q0-9-6.5-15.5T117 116q-9 0-16 6.5T94 138q0 10 7 16.5t16 6.5z"/></svg>

<?xml version="1.0" encoding="UTF-8" standalone="no"?><svg   xmlns:svg="http://www.w3.org/2000/svg"   xmlns="http://www.w3.org/2000/svg"   version="1.1"   width="512"   height="512"   viewBox="0 0 512 512">  <path     d="M512 312Q512 344 494 371T449 419L462 465L413 437Q399 441 385.5 444T358 447Q314 447 279 428.5T224 380Q204 349 204 312Q204 284 216 259T249 215.5T298 186.5T358 176Q360 176 362 176.5T366 177Q396 179 422.5 190T469 219T500.5 261T512 312zM309 289Q317 289 322 283.5T327 270T322 257T309 252T296 257T291 270T296 283.5T309 289zM408 289Q427 289 427 270Q427 262 421.5 257T408 252T395 257T390 270T395 283.5T408 289zM298 174Q263 185 238 209T201 265Q193 289 193 314Q193 333 198 353Q194 354 190 354H181Q164 354 149.5 351T117 345L54 377L72 321Q38 297 19 265T0 195Q0 162 14 133T53 83T110.5 49.5T181 37Q214 37 244.5 47T299.5 74.5T341 116T364 168Q359 167 355 166.5T346 166Q322 166 298 174zM246 115Q236 115 229 122T222 139T229 155.5T246 162T262.5 155.5T269 139T262.5 122T246 115zM117 161Q128 161 134.5 154.5T141 138Q141 129 134.5 122.5T117 116Q108 116 101 122.5T94 138Q94 148 101 154.5T117 161z"     id="wechat" /></svg>
